src/assets/images/card-green-rounded-sm.svg

<svg fill="none" height="191" viewBox="0 0 310 191" width="310" xmlns="http://www.w3.org/2000/svg" xmlns:xlink="http://www.w3.org/1999/xlink"><linearGradient id="a" gradientUnits="userSpaceOnUse" x1="276.218" x2="24.4036" y1="-25.8549" y2="225.959"><stop offset="0" stop-color="#1ac6bb"/><stop offset="1" stop-color="#95b734"/></linearGradient><linearGradient id="b"><stop offset="0" stop-color="#fff"/><stop offset="1" stop-color="#fff" stop-opacity="0"/></linearGradient><linearGradient id="c" gradientUnits="userSpaceOnUse" x1="35.686" x2="142" xlink:href="#b" y1="149.9" y2="24.7074"/><linearGradient id="d" gradientUnits="userSpaceOnUse" x1="262.5" x2="90.9999" xlink:href="#b" y1="26.5004" y2="193.5"/><linearGradient id="e" gradientUnits="userSpaceOnUse" x1="90.4999" x2="171" xlink:href="#b" y1="199" y2="119"/><linearGradient id="f" gradientUnits="userSpaceOnUse" x1="193.039" x2="299.022" xlink:href="#b" y1="115.065" y2="115.065"/><path d="m303.5 0h-297c-1.39453 0-2.09179 0-2.66723.13815-1.82824.438923-3.255697 1.86638-3.69462 3.69462-.13815.57544-.13815 1.27271-.13815 2.66724v177.76899c0 1.395 0 2.092.13815 2.667.438923 1.829 1.86638 3.256 3.69462 3.695.57544.138 1.2727.138 2.66722.138h297.00001c1.395 0 2.092 0 2.667-.138 1.828-.439 3.256-1.866 3.695-3.695.138-.575.138-1.272.138-2.667v-177.769c0-1.39453 0-2.09179-.138-2.66723-.439-1.82824-1.867-3.255697-3.695-3.69462-.575-.13815-1.272-.13815-2.667-.13815z" fill="url(#a)"/><path d="m21.047 51.5343c15.8975-26.8269 38.75-31.7948 66.3718-31.1325 23.6472.5962 49.2822 6.8227 71.1412-2.3846 21.793-9.14099 36.829-25.63459 60.344-24.70723 31.464 1.25854 45.043 26.42953 43.122 51.20303-2.65 34.3119-32.126 51.7329-61.404 49.8782-24.244-1.5235-49.878-3.7094-71.472 12.1878-19.938 14.705-33.4513 44.844-61.0068 47.626-54.3825 5.432-76.44019-53.057-47.0962-102.6707z" fill="url(#c)" opacity=".2"/><path d="m258.068 32.2589c-12.32-12.3205-32.457-12.3205-44.777 0l-184.4107 184.4101c-12.3205 12.321-12.3205 32.457 0 44.778 12.3205 12.32 32.4572 12.32 44.7778 0l184.4099-184.4103c12.321-12.3205 12.321-32.4572 0-44.7778z" fill="url(#d)" opacity=".2"/><path d="m76.4401 214.218c7.6837 7.684 20.203 7.684 27.8869 0l114.859-114.859c7.684-7.6837 7.684-20.2029 0-27.8867s-20.203-7.6838-27.887 0l-114.8589 114.8587c-7.6838 7.684-7.6838 20.203 0 27.887z" fill="url(#e)" opacity=".2"/><path d="m196.974 164.075c5.3 5.299 13.911 5.299 19.144 0l78.891-78.8911c5.299-5.2991 5.299-13.9102 0-19.1431-5.3-5.2992-13.911-5.2992-19.144 0l-78.891 78.8912c-5.299 5.233-5.299 13.91 0 19.143z" fill="url(#f)" opacity=".2"/><g fill="#fff"><path d="m203.752 74.9169c-.066 0-.199-.0001-.265-.0663-.132-.1325-.132-.3312 0-.4637l80.415-80.41449c.132-.13248.331-.13248.463 0 .133.13247.133.33119 0 .46367l-80.348 80.41452c-.066.0662-.199.0663-.265.0663z" opacity=".3"/><path d="m90.3641 211.37c-.0663 0-.1987 0-.265-.067-.1325-.132-.1325-.331 0-.463l140.4269-140.4277c.133-.1324.332-.1324.464 0 .133.1325.133.3312 0 .4637l-140.4272 140.427c0 .067-.1325.067-.1987.067z" opacity=".3"/><path d="m4.57037 217.597c-.06624 0-.19872 0-.26496-.067-.13247-.132-.13247-.331 0-.463l90.08549-90.086c.1325-.132.3312-.132.4637 0 .1324.133.1324.331 0 .464l-90.08551 90.085s-.06624.067-.19872.067z" opacity=".3"/><path d="m250.053 50.4746c-.198 0-.331-.1987-.331-.3312l.596-6.2265c0-.1325.133-.265.332-.3312l5.961-.5299.53-5.9616c0-.1324.132-.2649.331-.3312l5.962-.5299.53-5.9615c0-.1325.132-.265.331-.3312l6.226-.5962c.199 0 .332.1325.332.3312 0 .1988-.133.3312-.332.3312l-5.961.5299-.53 5.9616c0 .1325-.133.2649-.331.3312l-5.962.5299-.53 5.9615c0 .1325-.132.265-.331.3312l-5.962.5299-.529 5.9616c0 .1987-.133.3312-.332.3312z" opacity=".3"/><path d="m30.4037 179.442c-.1987 0-.3312-.198-.3312-.331l.4637-5.034c0-.133.1325-.265.3312-.331l4.7692-.464.4637-4.769c0-.133.1325-.265.3312-.331l4.7692-.464.4637-4.769c0-.133.1325-.265.3312-.332l5.0342-.463c.1987 0 .3312.132.3312.331s-.1325.331-.3312.331l-4.7693.464-.5299 4.835c0 .133-.1325.265-.3312.332l-4.7692.463-.4637 4.769c0 .133-.1325.265-.3312.332l-4.7692.463-.4637 4.77c.1325.066 0 .198-.1987.198z" opacity=".3"/></g></svg>

<svg width="310" height="191" viewBox="0 0 310 191" fill="none" xmlns="http://www.w3.org/2000/svg">
<path d="M303.5 0H6.5C5.10547 0 4.40821 0 3.83277 0.13815C2.00453 0.577073 0.577073 2.00453 0.13815 3.83277C0 4.40821 0 5.10548 0 6.50001V184.269C0 185.664 0 186.361 0.13815 186.936C0.577073 188.765 2.00453 190.192 3.83277 190.631C4.40821 190.769 5.10547 190.769 6.49999 190.769H303.5C304.895 190.769 305.592 190.769 306.167 190.631C307.995 190.192 309.423 188.765 309.862 186.936C310 186.361 310 185.664 310 184.269V6.5C310 5.10547 310 4.40821 309.862 3.83277C309.423 2.00453 307.995 0.577073 306.167 0.13815C305.592 0 304.895 0 303.5 0Z" fill="url(#paint0_linear_0_16567)"/>
<path opacity="0.2" d="M21.047 51.5343C36.9445 24.7074 59.797 19.7395 87.4188 20.4018C111.066 20.998 136.701 27.2245 158.56 18.0172C180.353 8.87621 195.389 -7.61739 218.904 -6.69003C250.368 -5.43149 263.947 19.7395 262.026 44.513C259.376 78.8249 229.9 96.2459 200.622 94.3912C176.378 92.8677 150.744 90.6818 129.15 106.579C109.212 121.284 95.6987 151.423 68.1432 154.205C13.7607 159.637 -8.29699 101.148 21.047 51.5343Z" fill="url(#paint1_linear_0_16567)"/>
<path opacity="0.2" d="M258.068 32.2589C245.748 19.9384 225.611 19.9384 213.291 32.2589L28.8803 216.669C16.5598 228.99 16.5598 249.126 28.8803 261.447C41.2008 273.767 61.3375 273.767 73.6581 261.447L258.068 77.0367C270.389 64.7162 270.389 44.5795 258.068 32.2589Z" fill="url(#paint2_linear_0_16567)"/>
<path opacity="0.2" d="M76.4401 214.218C84.1238 221.902 96.6431 221.902 104.327 214.218L219.186 99.359C226.87 91.6753 226.87 79.1561 219.186 71.4723C211.502 63.7885 198.983 63.7885 191.299 71.4723L76.4401 186.331C68.7563 194.015 68.7563 206.534 76.4401 214.218Z" fill="url(#paint3_linear_0_16567)"/>
<path opacity="0.2" d="M196.974 164.075C202.274 169.374 210.885 169.374 216.118 164.075L295.009 85.1839C300.308 79.8848 300.308 71.2737 295.009 66.0408C289.709 60.7416 281.098 60.7416 275.865 66.0408L196.974 144.932C191.675 150.165 191.675 158.842 196.974 164.075Z" fill="url(#paint4_linear_0_16567)"/>
<path opacity="0.3" d="M203.752 74.9169C203.686 74.9169 203.553 74.9168 203.487 74.8506C203.355 74.7181 203.355 74.5194 203.487 74.3869L283.902 -6.02759C284.034 -6.16007 284.233 -6.16007 284.365 -6.02759C284.498 -5.89512 284.498 -5.6964 284.365 -5.56392L204.017 74.8506C203.951 74.9168 203.818 74.9169 203.752 74.9169Z" fill="white"/>
<path opacity="0.3" d="M90.3641 211.37C90.2978 211.37 90.1654 211.37 90.0991 211.303C89.9666 211.171 89.9666 210.972 90.0991 210.84L230.526 70.4123C230.659 70.2799 230.858 70.2799 230.99 70.4123C231.123 70.5448 231.123 70.7435 230.99 70.876L90.5628 211.303C90.5628 211.37 90.4303 211.37 90.3641 211.37Z" fill="white"/>
<path opacity="0.3" d="M4.57037 217.597C4.50413 217.597 4.37165 217.597 4.30541 217.53C4.17294 217.398 4.17294 217.199 4.30541 217.067L94.3909 126.981C94.5234 126.849 94.7221 126.849 94.8546 126.981C94.987 127.114 94.987 127.312 94.8546 127.445L4.76909 217.53C4.76909 217.53 4.70285 217.597 4.57037 217.597Z" fill="white"/>
<path opacity="0.3" d="M250.053 50.4746C249.855 50.4746 249.722 50.2759 249.722 50.1434L250.318 43.9169C250.318 43.7844 250.451 43.6519 250.65 43.5857L256.611 43.0558L257.141 37.0942C257.141 36.9618 257.273 36.8293 257.472 36.763L263.434 36.2331L263.964 30.2716C263.964 30.1391 264.096 30.0066 264.295 29.9404L270.521 29.3442C270.72 29.3442 270.853 29.4767 270.853 29.6754C270.853 29.8742 270.72 30.0066 270.521 30.0066L264.56 30.5365L264.03 36.4981C264.03 36.6306 263.897 36.763 263.699 36.8293L257.737 37.3592L257.207 43.3207C257.207 43.4532 257.075 43.5857 256.876 43.6519L250.914 44.1818L250.385 50.1434C250.385 50.3421 250.252 50.4746 250.053 50.4746Z" fill="white"/>
<path opacity="0.3" d="M30.4037 179.442C30.205 179.442 30.0725 179.244 30.0725 179.111L30.5362 174.077C30.5362 173.944 30.6687 173.812 30.8674 173.746L35.6366 173.282L36.1003 168.513C36.1003 168.38 36.2328 168.248 36.4315 168.182L41.2007 167.718L41.6644 162.949C41.6644 162.816 41.7969 162.684 41.9956 162.617L47.0298 162.154C47.2285 162.154 47.361 162.286 47.361 162.485C47.361 162.684 47.2285 162.816 47.0298 162.816L42.2605 163.28L41.7306 168.115C41.7306 168.248 41.5981 168.38 41.3994 168.447L36.6302 168.91L36.1665 173.679C36.1665 173.812 36.034 173.944 35.8353 174.011L31.0661 174.474L30.6024 179.244C30.7349 179.31 30.6024 179.442 30.4037 179.442Z" fill="white"/>
<defs>
<linearGradient id="paint0_linear_0_16567" x1="276.218" y1="-25.8549" x2="24.4036" y2="225.959" gradientUnits="userSpaceOnUse">
<stop stop-color="#1AC6BB"/>
<stop offset="1" stop-color="#95B734"/>
</linearGradient>
<linearGradient id="paint1_linear_0_16567" x1="35.686" y1="149.9" x2="142" y2="24.7074" gradientUnits="userSpaceOnUse">
<stop stop-color="white"/>
<stop offset="1" stop-color="white" stop-opacity="0"/>
</linearGradient>
<linearGradient id="paint2_linear_0_16567" x1="262.5" y1="26.5004" x2="90.9999" y2="193.5" gradientUnits="userSpaceOnUse">
<stop stop-color="white"/>
<stop offset="1" stop-color="white" stop-opacity="0"/>
</linearGradient>
<linearGradient id="paint3_linear_0_16567" x1="90.4999" y1="199" x2="171" y2="119" gradientUnits="userSpaceOnUse">
<stop stop-color="white"/>
<stop offset="1" stop-color="white" stop-opacity="0"/>
</linearGradient>
<linearGradient id="paint4_linear_0_16567" x1="193.039" y1="115.065" x2="299.022" y2="115.065" gradientUnits="userSpaceOnUse">
<stop stop-color="white"/>
<stop offset="1" stop-color="white" stop-opacity="0"/>
</linearGradient>
</defs>
</svg>
